X:100
T:100. Grand Finale (2nds CCW) — arpeggio LH + shimmer RH
T:Climactic showpiece — fast ascending LH + high-register sixteenth shimmer
C:Full 7-mode cycle
M:4/4
L:1/16
Q:1/4=104
%%score {V1 V2}
V:V1 clef=treble
V:V2 clef=bass
K:C
[V:V1] "C" cegc' cegc' cegc' cegc' | "B°" bd'f'b' bd'f'b' bd'f'b' bd'f'b' | "Am" ac'e'a' ac'e'a' ac'e'a' ac'e'a' | "G" gbd'g' gbd'g' gbd'g' gbd'g' | "F" fac'f' fac'f' fac'f' fac'f' | "Em" egbe' egbe' egbe' egbe' | "Dm" dfad' dfad' dfad' dfad' | "C" cegc' cegc' cegc' cegc' |]
[V:V2] "_8"C,2 E,2 G,2 C2 C,2 E,2 G,2 C2 | "_8"B,2 D2 F2 B2 B,2 D2 F2 B2 | "_8"A,2 C2 E2 A2 A,2 C2 E2 A2 | "_8"G,2 B,2 D2 G2 G,2 B,2 D2 G2 | "_8"F,2 A,2 C2 F2 F,2 A,2 C2 F2 | "_8"E,2 G,2 B,2 E2 E,2 G,2 B,2 E2 | "_8"D,2 F,2 A,2 D2 D,2 F,2 A,2 D2 | "_8"C,2 E,2 G,2 C2 C,2 E,2 G,2 C2 |]
